48x48/apps/opn2_bank_editor.svg

<svg height="48" width="48" xmlns="http://www.w3.org/2000/svg"><g fill="#8e8e8e"><path d="m44 27v2h-40v-2zm0-4v2h-40v-2zm0-4v2h-40v-2zm0-4v2h-40v-2zm0 16v2h-40v-2zm0 4v2h-40v-2zm0 4v2h-40v-2zm0-28v2h-40v-2zm0-4v2h-40v-2z"/><path d="m23 4h2v40h-2zm-4 0h2v40h-2zm-4 0h2v40h-2zm-4 0h2v40h-2zm16 0h2v40h-2zm4 0h2v40h-2zm4 0h2v40h-2zm-28 0h2v40h-2zm32 0h2v40h-2z"/></g><g transform="matrix(0 -1 -1 0 0 0)"><rect fill="#4f4f4f" height="36" rx="1.8" ry="2.25" width="36" x="-42" y="-42"/><rect height="30" opacity=".2" rx="15" width="30" x="-40" y="-39.001"/><rect fill="#3b6ec5" height="30" rx="15" width="30" x="-39" y="-39.001"/></g><path d="m8.25 6c-1.246 0-2.25.804-2.25 1.8v1c0-.995 1.004-1.8 2.25-1.8h31.5c1.246 0 2.25.804 2.25 1.8v-1c0-.996-1.004-1.8-2.25-1.8z" fill="#fff" opacity=".1"/><path d="m6 40.199v1c0 .997 1.004 1.801 2.25 1.801h31.5c1.246 0 2.25-.804 2.25-1.801v-1c0 .997-1.004 1.801-2.25 1.801h-31.5c-1.246 0-2.25-.804-2.25-1.801z" opacity=".2"/><path d="m24 9c-8.31 0-15 6.69-15 15 0 .18.021.356.028.536.282-8.058 6.842-14.464 14.972-14.464 8.129 0 14.69 6.406 14.973 14.464.006-.18.027-.355.027-.536 0-8.31-6.69-15-15-15z" fill="#f4f4f7" opacity=".1"/><path d="m489 183v8.188c-.32-.12-.64-.19-1-.19a3 3 0 1 0 3 3v-7h6v4.187c-.32-.12-.64-.19-1-.19a3 3 0 1 0 3 3v-11h-1z" opacity=".2" transform="translate(-469 -165)"/><path d="m489 183v8.188c-.32-.12-.64-.19-1-.19a3 3 0 1 0 3 3v-7h6v4.187c-.32-.12-.64-.19-1-.19a3 3 0 1 0 3 3v-11h-1z" fill="#f4f4f7" transform="translate(-469 -166)"/></svg>

<svg width="48" height="48" version="1" xmlns="http://www.w3.org/2000/svg"><g fill="#8e8e8e"><path d="M44 27v2H4v-2zM44 23v2H4v-2zM44 19v2H4v-2zM44 15v2H4v-2zM44 31v2H4v-2zM44 35v2H4v-2zM44 39v2H4v-2zM44 11v2H4v-2zM44 7v2H4V7z"/><path d="M23 4h2v40h-2zM19 4h2v40h-2zM15 4h2v40h-2zM11 4h2v40h-2zM27 4h2v40h-2zM31 4h2v40h-2zM35 4h2v40h-2zM7 4h2v40H7zM39 4h2v40h-2z"/></g><rect transform="matrix(0 -1 -1 0 0 0)" x="-42" y="-42" width="36" height="36" rx="1.8" ry="2.25" style="fill:#4f4f4f"/><rect transform="matrix(0 -1 -1 0 0 0)" x="-40" y="-39.001" width="30" height="30" rx="15" ry="15" style="opacity:.2"/><rect transform="matrix(0 -1 -1 0 0 0)" x="-39" y="-39.001" width="30" height="30" rx="15" ry="15" style="fill:#3b6ec5"/><path d="M8.25 6C7.004 6 6 6.804 6 7.8v1C6 7.805 7.004 7 8.25 7h31.5C40.996 7 42 7.804 42 8.8v-1c0-.996-1.004-1.8-2.25-1.8H8.25z" fill="#fff" style="opacity:.1"/><path d="M6 40.199v1C6 42.196 7.004 43 8.25 43h31.5c1.246 0 2.25-.804 2.25-1.801v-1C42 41.196 40.996 42 39.75 42H8.25C7.004 42 6 41.196 6 40.199z" opacity=".2"/><path d="M24 9C15.69 9 9 15.69 9 24c0 .18.021.356.028.536C9.31 16.478 15.87 10.072 24 10.072c8.129 0 14.69 6.406 14.973 14.464.006-.18.027-.355.027-.536 0-8.31-6.69-15-15-15z" style="fill:#f4f4f7;opacity:.1"/><path d="M489 183v8.188c-.32-.12-.64-.19-1-.19a3 3 0 1 0 3 3v-7h6v4.187c-.32-.12-.64-.19-1-.19a3 3 0 1 0 3 3v-11h-1z" transform="translate(-469 -165)" style="enable-background:new;opacity:.2"/><g style="enable-background:new;fill:#f4f4f7"><path d="M489 183v8.188c-.32-.12-.64-.19-1-.19a3 3 0 1 0 3 3v-7h6v4.187c-.32-.12-.64-.19-1-.19a3 3 0 1 0 3 3v-11h-1z" style="fill:#f4f4f7" transform="translate(-469 -166)"/></g></svg>
